outputs/icons/alert/alert_outline_round.svg

<svg width="1200" height="1200" viewBox="0 0 1200 1200" fill="none" xmlns="http://www.w3.org/2000/svg"><g clip-path="url(#clip0_231_5361)"><path d="M964.505 864.5L900.005 800V550C900.005 396.5 818.005 268 675.005 234V200C675.005 158.5 641.505 125 600.005 125C558.505 125 525.005 158.5 525.005 200V234C381.502 268 300.002 396 300.002 550V800L235.502 864.5C204.002 896 226.003 950 270.502 950H929.005C974.005 950 996.005 896 964.505 864.5ZM800.005 850H400.002V550C400.002 426 475.502 325 600.005 325C724.505 325 800.005 426 800.005 550V850ZM600.005 1100C655.005 1100 700.005 1055 700.005 1000H500.005C500.005 1055 544.505 1100 600.005 1100Z" fill="#1D1E23"/></g><defs><clipPath id="clip0_231_5361"><path width="24" fill="white" d="M0 0H1200V1200H0V0z"/></clipPath></defs></svg>

<svg xmlns="http://www.w3.org/2000/svg" width="1200" height="1200" fill="none"><g clip-path="url(#a)"><path fill="#000" d="m964.505 864.5-64.5-64.5V550c0-153.5-82-282-225-316v-34c0-41.5-33.5-75-75-75s-75 33.5-75 75v34c-143.503 34-225.003 162-225.003 316v250l-64.5 64.5c-31.5 31.5-9.499 85.5 35 85.5h658.503c45 0 67-54 35.5-85.5m-164.5-14.5H400.002V550c0-124 75.5-225 200.003-225 124.5 0 200 101 200 225zm-200 250c55 0 100-45 100-100h-200c0 55 44.5 100 100 100"/></g><defs><clipPath id="a"><path fill="#fff" d="M0 0h1200v1200H0z"/></clipPath></defs></svg>
